src/asset/120/invite.svg

<svg width="120" height="120" viewBox="0 0 120 120" fill="none" xmlns="http://www.w3.org/2000/svg">
    <path d="M85 46C90.5228 46 95 41.7467 95 36.5C95 31.2533 90.5228 27 85 27C79.4772 27 75 31.2533 75 36.5C75 41.7467 79.4772 46 85 46Z" fill="url(#4290gun438gu2nf)"/>
    <path d="M83.9877 50C75.1576 50 68 56.643 68 64.8383V84.5162C68 85.338 68.7133 86 69.5988 86H98.4012C99.2867 86 100 85.338 100 84.5162V64.8383C99.9754 56.6658 92.8178 50 83.9877 50Z" fill="url(#42ugn438fun)"/>
    <path d="M34 46C39.5228 46 44 41.7467 44 36.5C44 31.2533 39.5228 27 34 27C28.4772 27 24 31.2533 24 36.5C24 41.7467 28.4772 46 34 46Z" fill="url(#oewugb348vm3490fi)"/>
    <path d="M34.9877 50C26.1576 50 19 56.643 19 64.8383V84.5162C19 85.338 19.7133 86 20.5988 86H49.4012C50.2867 86 51 85.338 51 84.5162V64.8383C50.9754 56.6658 43.8178 50 34.9877 50Z" fill="url(#siogdubew8unw)"/>
    <path fill-rule="evenodd" clip-rule="evenodd" d="M50 42C50 36.4811 54.4811 32 60 32C65.5189 32 70 36.4811 70 42C70 47.5189 65.5189 52 60 52C54.4811 52 50 47.5189 50 42ZM66.2264 42C66.2264 38.5566 63.4198 35.7736 60 35.7736C56.5802 35.7736 53.7736 38.5566 53.7736 42C53.7736 45.4434 56.5802 48.2264 60 48.2264C63.4434 48.2264 66.2264 45.4434 66.2264 42Z" fill="url(#ugn3409fuin329fi)"/>
    <path d="M59.619 56.7931C51.0713 56.7931 44.1428 63.3155 44.1428 71.3621V90.6827C44.1428 91.4896 44.8332 92.1396 45.6904 92.1396H73.5713C74.4285 92.1396 75.119 91.4896 75.119 90.6827V71.3621C75.0951 63.3155 68.1666 56.7931 59.619 56.7931Z" fill="white"/>
    <path fill-rule="evenodd" clip-rule="evenodd" d="M45.6667 93.9328H73.5714C75.4524 93.9328 77 92.4759 76.9762 90.6828V71.3621C76.9762 62.3517 69.1667 55 59.5952 55C50.0238 55 42.2143 62.3293 42.2143 71.3621V90.6828C42.2143 92.4759 43.7619 93.9328 45.6667 93.9328ZM73.1904 90.3465H46.0475V71.362C46.0475 64.3241 52.1428 58.5862 59.619 58.5862C67.0952 58.5862 73.1904 64.3241 73.1904 71.362V90.3465Z" fill="url(#we8fh329f8u23)"/>
    <defs>
        <linearGradient id="4290gun438gu2nf" x1="75" y1="46" x2="93.975" y2="26.0263" gradientUnits="userSpaceOnUse">
            <stop stop-color="#FFC75D"/>
            <stop offset="1" stop-color="#FFA363"/>
        </linearGradient>
        <linearGradient id="42ugn438fun" x1="68" y1="86" x2="103.752" y2="54.2207" gradientUnits="userSpaceOnUse">
            <stop stop-color="#FFC75D"/>
            <stop offset="1" stop-color="#FFA363"/>
        </linearGradient>
        <linearGradient id="oewugb348vm3490fi" x1="24" y1="46" x2="42.975" y2="26.0263" gradientUnits="userSpaceOnUse">
            <stop stop-color="#FFC75D"/>
            <stop offset="1" stop-color="#FFA363"/>
        </linearGradient>
        <linearGradient id="siogdubew8unw" x1="19" y1="86" x2="54.7517" y2="54.2207" gradientUnits="userSpaceOnUse">
            <stop stop-color="#FFC75D"/>
            <stop offset="1" stop-color="#FFA363"/>
        </linearGradient>
        <linearGradient id="ugn3409fuin329fi" x1="70.6548" y1="56.6429" x2="57.3295" y2="60.2975" gradientUnits="userSpaceOnUse">
            <stop stop-color="#658BF5"/>
            <stop offset="1" stop-color="#8DB0FF"/>
        </linearGradient>
        <linearGradient id="we8fh329f8u23" x1="78.1145" y1="102.971" x2="54.6206" y2="108.724" gradientUnits="userSpaceOnUse">
            <stop stop-color="#658BF5"/>
            <stop offset="1" stop-color="#8DB0FF"/>
        </linearGradient>
    </defs>
</svg>

<svg width="120" height="120" fill="none" xmlns="http://www.w3.org/2000/svg"><path d="M85 46c5.523 0 10-4.253 10-9.5S90.523 27 85 27s-10 4.253-10 9.5S79.477 46 85 46z" fill="url(#4290gun438gu2nf)"/><path d="M83.988 50C75.158 50 68 56.643 68 64.838v19.678c0 .822.713 1.484 1.599 1.484H98.4c.886 0 1.599-.662 1.599-1.484V64.838C99.975 56.666 92.818 50 83.988 50z" fill="url(#42ugn438fun)"/><path d="M34 46c5.523 0 10-4.253 10-9.5S39.523 27 34 27s-10 4.253-10 9.5S28.477 46 34 46z" fill="url(#oewugb348vm3490fi)"/><path d="M34.988 50C26.158 50 19 56.643 19 64.838v19.678c0 .822.713 1.484 1.599 1.484H49.4c.886 0 1.599-.662 1.599-1.484V64.838C50.975 56.666 43.818 50 34.988 50z" fill="url(#siogdubew8unw)"/><path fill-rule="evenodd" clip-rule="evenodd" d="M50 42c0-5.519 4.481-10 10-10s10 4.481 10 10-4.481 10-10 10-10-4.481-10-10zm16.226 0c0-3.443-2.806-6.226-6.226-6.226S53.774 38.557 53.774 42 56.58 48.226 60 48.226A6.22 6.22 0 0066.226 42z" fill="url(#ugn3409fuin329fi)"/><path d="M59.619 56.793c-8.548 0-15.476 6.523-15.476 14.57v19.32c0 .807.69 1.457 1.547 1.457h27.881c.858 0 1.548-.65 1.548-1.457v-19.32c-.024-8.047-6.952-14.57-15.5-14.57z" fill="#fff"/><path fill-rule="evenodd" clip-rule="evenodd" d="M45.667 93.933H73.57c1.881 0 3.429-1.457 3.405-3.25v-19.32c0-9.011-7.81-16.363-17.38-16.363-9.572 0-17.382 7.33-17.382 16.362v19.32c0 1.794 1.548 3.25 3.453 3.25zm27.523-3.587H46.048V71.363c0-7.038 6.095-12.776 13.571-12.776S73.19 64.324 73.19 71.362v18.985z" fill="url(#we8fh329f8u23)"/><defs><linearGradient id="4290gun438gu2nf" x1="75" y1="46" x2="93.975" y2="26.026" gradientUnits="userSpaceOnUse"><stop stop-color="#FFC75D"/><stop offset="1" stop-color="#FFA363"/></linearGradient><linearGradient id="42ugn438fun" x1="68" y1="86" x2="103.752" y2="54.221" gradientUnits="userSpaceOnUse"><stop stop-color="#FFC75D"/><stop offset="1" stop-color="#FFA363"/></linearGradient><linearGradient id="oewugb348vm3490fi" x1="24" y1="46" x2="42.975" y2="26.026" gradientUnits="userSpaceOnUse"><stop stop-color="#FFC75D"/><stop offset="1" stop-color="#FFA363"/></linearGradient><linearGradient id="siogdubew8unw" x1="19" y1="86" x2="54.752" y2="54.221" gradientUnits="userSpaceOnUse"><stop stop-color="#FFC75D"/><stop offset="1" stop-color="#FFA363"/></linearGradient><linearGradient id="ugn3409fuin329fi" x1="70.655" y1="56.643" x2="57.33" y2="60.297" gradientUnits="userSpaceOnUse"><stop stop-color="#658BF5"/><stop offset="1" stop-color="#8DB0FF"/></linearGradient><linearGradient id="we8fh329f8u23" x1="78.115" y1="102.971" x2="54.621" y2="108.724" gradientUnits="userSpaceOnUse"><stop stop-color="#658BF5"/><stop offset="1" stop-color="#8DB0FF"/></linearGradient></defs></svg>
